X: 25924
T: Maulykeavane Rambler, The
R: slide
M: 12/8
K: Dmajor
|:F2B A^GA F2B A^GA|Bcd e2d c2A {c}B2A|
F2B A^GA F2B A^GA|Bcd e2A B2c d3:|
|:fff f2e d2c B2A|Bcd e2d c2A {c}B2A|
fff f2e d2c B2A|Bcd e2A B2c d3:|

